static/assets/images/icons/tangled.svg

<svg width="256" height="256" viewBox="0 0 256 256" fill="none" xmlns="http://www.w3.org/2000/svg">
<path fill-rule="evenodd" clip-rule="evenodd" d="M181.311 33H78.0735C72.7106 33 68.3631 37.3468 68.3631 42.7087V73.3685C68.3631 78.7305 72.7106 83.0772 78.0735 83.0772H173.359V130.231C173.359 132.376 171.62 134.114 169.474 134.114H158.64V107.492C158.64 102.131 154.292 97.7838 148.929 97.7838H104.568C99.2048 97.7838 94.8573 102.131 94.8573 107.493V134.114H43.3477C38.7374 134.114 35 137.851 35 142.461C35 147.07 38.7374 150.807 43.3477 150.807H94.8573V207.552L77.4539 192.544C75.9903 191.096 74.0053 190.282 71.9355 190.282C69.8657 190.282 67.8807 191.096 66.4171 192.544C64.9536 193.993 64.1314 195.958 64.1314 198.007C64.1314 200.056 64.9536 202.021 66.4171 203.47L97.3143 230.757C100.6 233.701 105.581 233.753 108.928 230.878L141.471 203.47C142.935 202.021 143.757 200.056 143.757 198.007C143.757 195.958 142.935 193.993 141.471 192.544C140.008 191.096 138.023 190.282 135.953 190.282C133.883 190.282 131.898 191.096 130.435 192.544L111.539 208.102V150.807H142.939V171.493C142.939 176.855 147.287 181.202 152.65 181.202H211.73C217.093 181.202 221.441 176.855 221.441 171.493V75.1116C221.441 69.7497 217.093 65.4029 211.73 65.4029H191.021V42.7087C191.021 37.3467 186.674 33 181.311 33ZM201.856 164.509H162.524C160.379 164.509 158.64 162.771 158.64 160.626V150.807H181.311C186.674 150.807 191.021 146.46 191.021 141.098V83.0772H201.856C204.001 83.0772 205.74 84.8159 205.74 86.9607V160.626C205.74 162.771 204.001 164.509 201.856 164.509ZM85.0446 61.5194V53.5759C85.0446 51.4311 86.7836 49.6924 88.9288 49.6924H169.474C171.62 49.6924 173.359 51.4311 173.359 53.5759V65.4029H88.9288C86.7836 65.4029 85.0446 63.6642 85.0446 61.5194ZM115.423 115.458H139.055C141.2 115.458 142.939 117.197 142.939 119.342V134.114H111.539V119.342C111.539 117.197 113.278 115.458 115.423 115.458Z" fill="black"/>
</svg>

<svg xmlns="http://www.w3.org/2000/svg" fill="none" viewBox="0 0 256 256"><path fill="#000" fill-rule="evenodd" d="M181.311 33H78.073c-5.362 0-9.71 4.347-9.71 9.709v30.66c0 5.362 4.348 9.708 9.71 9.708h95.286v47.154a3.883 3.883 0 0 1-3.885 3.883H158.64v-26.622c0-5.361-4.348-9.708-9.711-9.708h-44.361c-5.363 0-9.71 4.347-9.71 9.709v26.621h-51.51a8.347 8.347 0 1 0 0 16.693h51.51v56.745l-17.404-15.008a7.85 7.85 0 0 0-5.518-2.262 7.85 7.85 0 0 0-5.519 2.262 7.7 7.7 0 0 0-2.286 5.463 7.7 7.7 0 0 0 2.286 5.463l30.897 27.287a8.82 8.82 0 0 0 11.614.121l32.543-27.408a7.7 7.7 0 0 0 2.286-5.463 7.7 7.7 0 0 0-2.286-5.463 7.85 7.85 0 0 0-5.518-2.262c-2.07 0-4.055.814-5.518 2.262l-18.896 15.558v-57.295h31.4v20.686c0 5.362 4.348 9.709 9.711 9.709h59.08c5.363 0 9.711-4.347 9.711-9.709V75.112c0-5.362-4.348-9.71-9.711-9.71h-20.709V42.71c0-5.362-4.347-9.709-9.71-9.709m20.545 131.509h-39.332a3.883 3.883 0 0 1-3.884-3.883v-9.819h22.671c5.363 0 9.71-4.347 9.71-9.709v-58.02h10.835a3.884 3.884 0 0 1 3.884 3.883v73.665a3.883 3.883 0 0 1-3.884 3.883M85.045 61.519v-7.943a3.884 3.884 0 0 1 3.884-3.884h80.545a3.884 3.884 0 0 1 3.885 3.884v11.827h-84.43a3.884 3.884 0 0 1-3.884-3.884m30.378 53.939h23.632a3.884 3.884 0 0 1 3.884 3.884v14.772h-31.4v-14.772a3.884 3.884 0 0 1 3.884-3.884" clip-rule="evenodd"/></svg>
